svg/scale-in.svg

<?xml version="1.0" encoding="UTF-8"?>
<svg xmlns="http://www.w3.org/2000/svg" xmlns:xlink="http://www.w3.org/1999/xlink" width="32" height="32" viewBox="0 0 32 32">
<path fill-rule="nonzero" fill="rgb(25.098039%, 25.098039%, 25.490196%)" fill-opacity="1" d="M 16.800781 21.027344 L 16.800781 15.132812 L 19.886719 15.132812 L 16 11.246094 L 12.113281 15.132812 L 15.199219 15.132812 L 15.199219 21.027344 Z M 19.3125 0 L 12.6875 0 C 11.867188 0 11.199219 0.664062 11.199219 1.488281 L 11.199219 8.113281 C 11.199219 8.9375 11.867188 9.601562 12.6875 9.601562 L 19.316406 9.601562 C 20.136719 9.601562 20.800781 8.9375 20.800781 8.113281 L 20.800781 1.488281 C 20.800781 0.667969 20.132812 0 19.3125 0 M 30.511719 22.398438 L 23.886719 22.398438 C 23.0625 22.398438 22.398438 23.066406 22.398438 23.886719 L 22.398438 30.515625 C 22.398438 31.335938 23.0625 32 23.886719 32 L 30.511719 32 C 31.335938 32 32 31.335938 32 30.515625 L 32 23.886719 C 32 23.066406 31.335938 22.398438 30.511719 22.398438 M 19.3125 22.398438 L 12.6875 22.398438 C 11.863281 22.398438 11.199219 23.066406 11.199219 23.886719 L 11.199219 30.515625 C 11.199219 31.335938 11.867188 32 12.6875 32 L 19.316406 32 C 20.136719 32 20.800781 31.335938 20.800781 30.515625 L 20.800781 23.886719 C 20.800781 23.066406 20.132812 22.398438 19.3125 22.398438 M 8.113281 22.398438 L 1.488281 22.398438 C 0.664062 22.398438 0 23.066406 0 23.886719 L 0 30.515625 C 0 31.335938 0.664062 32 1.488281 32 L 8.113281 32 C 8.9375 32 9.601562 31.335938 9.601562 30.515625 L 9.601562 23.886719 C 9.601562 23.0625 8.933594 22.398438 8.113281 22.398438 M 8.113281 22.398438 "/>
</svg>

<svg role="img" viewBox="0 0 32 32" xmlns="http://www.w3.org/2000/svg"><path d="M16.8 21.027v-5.894h3.087L16 11.246l-3.887 3.887H15.2v5.894ZM19.313 0h-6.625c-.82 0-1.488.664-1.488 1.488v6.625c0 .825.668 1.489 1.489 1.489h6.628c.82 0 1.485-.665 1.485-1.489V1.488A1.49 1.49 0 0 0 19.313 0m11.199 22.398h-6.625c-.825 0-1.489.668-1.489 1.489v6.629c0 .82.665 1.484 1.489 1.484h6.625c.824 0 1.488-.664 1.488-1.484v-6.63c0-.82-.664-1.488-1.488-1.488m-11.2 0h-6.625c-.824 0-1.488.668-1.488 1.489v6.629c0 .82.668 1.484 1.489 1.484h6.628c.82 0 1.485-.664 1.485-1.484v-6.63a1.49 1.49 0 0 0-1.488-1.488m-11.2 0H1.488c-.824 0-1.488.668-1.488 1.489v6.629C0 31.336.664 32 1.488 32h6.625c.825 0 1.489-.664 1.489-1.484v-6.63c0-.823-.668-1.488-1.489-1.488m0 0" fill="rgb(25.098041%, 25.098041%, 25.490198%)"/></svg>
